symbols/default/14.svg

<svg xmlns="http://www.w3.org/2000/svg" fill="none" viewBox="0 0 100 100">
  <g clip-path="url(#a)">
    <path fill="#B2B2B2" fill-rule="evenodd" d="M57.7 23c11.7 0 21.7 8.6 23.6 19.9C87.5 44.5 92 50.2 92 56.8c0 7.9-6.5 14.3-14.4 14.3H61.363c-.406-1.049-1.097-1.815-2.163-2.3l-4-1.7 2.2-12.3c.4-1.9-.8-3.8-2.6-4.5-.4-.2-.8-.3-1.2-.3-1.4 0-2.8.8-3.5 2.1l-10.328 19H21.9c-3.9 0-7.6-1.5-10.3-4.2-2.9-2.7-4.5-6.4-4.6-10.5v-.2c0-3.8 1.5-7.4 4.2-10.2 2.8-2.9 6.6-4.5 10.7-4.5.6 0 1.1 0 1.7.1 1.4-3.7 5-6.2 9.2-6.2 1.2 0 2.4.2 3.6.7 4-8 12.2-13.1 21.3-13.1Z" clip-rule="evenodd"/>
    <path fill="url(#b)" fill-rule="evenodd" d="M57.7 23c11.7 0 21.7 8.6 23.6 19.9C87.5 44.5 92 50.2 92 56.8c0 7.9-6.5 14.3-14.4 14.3H61.363c-.406-1.049-1.097-1.815-2.163-2.3l-4-1.7 2.2-12.3c.4-1.9-.8-3.8-2.6-4.5-.4-.2-.8-.3-1.2-.3-1.4 0-2.8.8-3.5 2.1l-10.328 19H21.9c-3.9 0-7.6-1.5-10.3-4.2-2.9-2.7-4.5-6.4-4.6-10.5v-.2c0-3.8 1.5-7.4 4.2-10.2 2.8-2.9 6.6-4.5 10.7-4.5.6 0 1.1 0 1.7.1 1.4-3.7 5-6.2 9.2-6.2 1.2 0 2.4.2 3.6.7 4-8 12.2-13.1 21.3-13.1Z" clip-rule="evenodd" opacity=".6" style="mix-blend-mode:multiply"/>
    <g filter="url(#c)" opacity=".3" style="mix-blend-mode:multiply">
      <path fill="#B6B6B6" fill-rule="evenodd" d="M44.073 63.187c-6.589.45-13.618.813-14.573.813-6.5 0-11 5.1-11 5.1h22.359l3.214-5.913Zm12.412-3.27L57.4 54.8c.051-.243.076-.486.077-.727.648-.239 1.17-.47 1.17-.47s4.352-1.602 5.103-1.602c.75 0 .374-2.963.14-4.81l-.14-1.32c0-.362-.448-.885-1-1.53-.777-.908-1.762-2.057-2-3.34-.175-.94.026-2.082.172-2.91.091-.516.16-.91.104-1.058.112.053.922.327.922.327 1.948.66 5.03 1.74 7.802 3.64 1.658 1.138 3.941 3.314 3.941 3.314s1.645 1.272 2.059 1.687c1 1 4 4 6 4h5L89 51.59l.5 3.21c0 7.9-6.5 14.3-14.4 14.3H59.758c-.173-.11-.36-.21-.558-.301l-4-1.7.926-5.178c.556-.355.562-1.108.359-2.004Zm4.505-22.916c.014-.004.026.007.036.032 0 0-.05-.029-.036-.032Z" clip-rule="evenodd"/>
    </g>
    <path fill="#FF9D00" fill-rule="evenodd" d="M50.8 69.4 53.6 54 43 73.5l7.1 3L45.5 94l12.2-21.6-6.9-3Z" clip-rule="evenodd"/>
    <path fill="#00B8F1" d="M37.7 83.5h-2.8l1.4-2.5c.4-.6.2-1.5-.5-1.8-.7-.4-1.5-.2-1.9.5l-1.4 2.4-1.4-2.4c-.4-.7-1.2-.9-1.8-.5-.4.2-.6.5-.7.8-.1.3 0 .7.1 1l1.4 2.4h-2.7c-.8.1-1.4.7-1.4 1.4s.6 1.4 1.4 1.4h2.8l-1.4 2.4c-.2.3-.2.7-.1 1 .1.3.3.6.6.8.6.4 1.5.1 1.8-.5l1.4-2.4 1.4 2.5c.2.4.7.7 1.2.7.2 0 .5-.1.7-.2.6-.4.9-1.2.5-1.8l-1.4-2.5h2.8c.7 0 1.4-.6 1.4-1.4 0-.8-.7-1.3-1.4-1.3ZM64.7 92.5h-2.8l1.4-2.5c.4-.6.2-1.5-.5-1.8-.7-.4-1.5-.2-1.9.5l-1.4 2.4-1.4-2.4c-.4-.7-1.2-.9-1.8-.5-.4.2-.6.5-.7.8-.1.3 0 .7.1 1l1.4 2.4h-2.7c-.8.1-1.4.7-1.4 1.4s.6 1.4 1.4 1.4h2.8l-1.4 2.4c-.2.3-.2.7-.1 1 .1.3.3.6.6.8.6.4 1.5.1 1.8-.5l1.4-2.4 1.4 2.5c.2.4.7.7 1.2.7.2 0 .5-.1.7-.2.6-.4.9-1.2.5-1.8l-1.4-2.5h2.8c.7 0 1.4-.6 1.4-1.4 0-.8-.7-1.3-1.4-1.3ZM77.7 83.5h-2.8l1.4-2.5c.4-.6.2-1.5-.5-1.8-.7-.4-1.5-.2-1.9.5l-1.4 2.4-1.4-2.4c-.4-.7-1.2-.9-1.8-.5-.4.2-.6.5-.7.8-.1.3 0 .7.1 1l1.4 2.4h-2.7c-.8.1-1.4.7-1.4 1.4s.6 1.4 1.4 1.4h2.8l-1.4 2.4c-.2.3-.2.7-.1 1 .1.3.3.6.6.8.6.4 1.5.1 1.8-.5l1.4-2.4 1.4 2.5c.2.4.7.7 1.2.7.2 0 .5-.1.7-.2.6-.4.9-1.2.5-1.8l-1.4-2.5h2.8c.7 0 1.4-.6 1.4-1.4 0-.8-.7-1.3-1.4-1.3Z"/>
  </g>
  <defs>
    <linearGradient id="b" x1="47.5" x2="49.5" y1="38.5" y2="71.1" gradientUnits="userSpaceOnUse">
      <stop offset=".484" stop-color="#fff" stop-opacity="0"/>
      <stop offset="1" stop-color="#B3B2B2"/>
    </linearGradient>
    <clipPath id="a">
      <path fill="#fff" d="M0 0h100v100H0z"/>
    </clipPath>
    <filter id="c" width="85" height="46.101" x="11.5" y="30" color-interpolation-filters="sRGB" filterUnits="userSpaceOnUse">
      <feFlood flood-opacity="0" result="BackgroundImageFix"/>
      <feBlend in="SourceGraphic" in2="BackgroundImageFix" result="shape"/>
      <feGaussianBlur result="effect1_foregroundBlur_149_1406" stdDeviation="3.5"/>
    </filter>
  </defs>
</svg>

<svg width="100" height="100" viewBox="0 0 100 100" fill="none" xmlns="http://www.w3.org/2000/svg">
<g clip-path="url(#clip0_149_1406)">
<path fill-rule="evenodd" clip-rule="evenodd" d="M57.7 23C69.4 23 79.4 31.6 81.3 42.9C87.5 44.5 92 50.2 92 56.8C92 64.7 85.5 71.1 77.6 71.1H61.3625C60.9568 70.0514 60.2664 69.2847 59.2 68.8L55.2 67.1L57.4 54.8C57.8 52.9 56.6 51 54.8 50.3C54.4 50.1 54 50 53.6 50C52.2 50 50.8 50.8 50.1 52.1L39.7718 71.1H21.9C18 71.1 14.3 69.6 11.6 66.9C8.7 64.2 7.1 60.5 7 56.4V56.2C7 52.4 8.5 48.8 11.2 46C14 43.1 17.8 41.5 21.9 41.5C22.5 41.5 23 41.5 23.6 41.6C25 37.9 28.6 35.4 32.8 35.4C34 35.4 35.2 35.6 36.4 36.1C40.4 28.1 48.6 23 57.7 23Z" fill="#B2B2B2"/>
<g opacity="0.6">
<path fill-rule="evenodd" clip-rule="evenodd" d="M57.7 23C69.4 23 79.4 31.6 81.3 42.9C87.5 44.5 92 50.2 92 56.8C92 64.7 85.5 71.1 77.6 71.1H61.3625C60.9568 70.0514 60.2664 69.2847 59.2 68.8L55.2 67.1L57.4 54.8C57.8 52.9 56.6 51 54.8 50.3C54.4 50.1 54 50 53.6 50C52.2 50 50.8 50.8 50.1 52.1L39.7718 71.1H21.9C18 71.1 14.3 69.6 11.6 66.9C8.7 64.2 7.1 60.5 7 56.4V56.2C7 52.4 8.5 48.8 11.2 46C14 43.1 17.8 41.5 21.9 41.5C22.5 41.5 23 41.5 23.6 41.6C25 37.9 28.6 35.4 32.8 35.4C34 35.4 35.2 35.6 36.4 36.1C40.4 28.1 48.6 23 57.7 23Z" fill="url(#paint0_linear_149_1406)" style="mix-blend-mode:multiply"/>
</g>
<path fill-rule="evenodd" clip-rule="evenodd" d="M50.8 69.4L53.6 54L43 73.5L50.1 76.5L45.5 94L57.7 72.4L50.8 69.4Z" fill="#FF9D00"/>
<path d="M37.7 83.5H34.9L36.3 81C36.7 80.4 36.5 79.5 35.8 79.2C35.1 78.8 34.3 79 33.9 79.7L32.5 82.1L31.1 79.7C30.7 79 29.9 78.8 29.3 79.2C28.9 79.4 28.7 79.7 28.6 80C28.5 80.3 28.6 80.7 28.7 81L30.1 83.4H27.4C26.6 83.5 26 84.1 26 84.8C26 85.5 26.6 86.2 27.4 86.2H30.2L28.8 88.6C28.6 88.9 28.6 89.3 28.7 89.6C28.8 89.9 29 90.2 29.3 90.4C29.9 90.8 30.8 90.5 31.1 89.9L32.5 87.5L33.9 90C34.1 90.4 34.6 90.7 35.1 90.7C35.3 90.7 35.6 90.6 35.8 90.5C36.4 90.1 36.7 89.3 36.3 88.7L34.9 86.2H37.7C38.4 86.2 39.1 85.6 39.1 84.8C39.1 84 38.4 83.5 37.7 83.5Z" fill="#00B8F1"/>
<path d="M64.7 92.5H61.9L63.3 90C63.7 89.4 63.5 88.5 62.8 88.2C62.1 87.8 61.3 88 60.9 88.7L59.5 91.1L58.1 88.7C57.7 88 56.9 87.8 56.3 88.2C55.9 88.4 55.7 88.7 55.6 89C55.5 89.3 55.6 89.7 55.7 90L57.1 92.4H54.4C53.6 92.5 53 93.1 53 93.8C53 94.5 53.6 95.2 54.4 95.2H57.2L55.8 97.6C55.6 97.9 55.6 98.3 55.7 98.6C55.8 98.9 56 99.2 56.3 99.4C56.9 99.8 57.8 99.5 58.1 98.9L59.5 96.5L60.9 99C61.1 99.4 61.6 99.7 62.1 99.7C62.3 99.7 62.6 99.6 62.8 99.5C63.4 99.1 63.7 98.3 63.3 97.7L61.9 95.2H64.7C65.4 95.2 66.1 94.6 66.1 93.8C66.1 93 65.4 92.5 64.7 92.5Z" fill="#00B8F1"/>
<path d="M77.7 83.5H74.9L76.3 81C76.7 80.4 76.5 79.5 75.8 79.2C75.1 78.8 74.3 79 73.9 79.7L72.5 82.1L71.1 79.7C70.7 79 69.9 78.8 69.3 79.2C68.9 79.4 68.7 79.7 68.6 80C68.5 80.3 68.6 80.7 68.7 81L70.1 83.4H67.4C66.6 83.5 66 84.1 66 84.8C66 85.5 66.6 86.2 67.4 86.2H70.2L68.8 88.6C68.6 88.9 68.6 89.3 68.7 89.6C68.8 89.9 69 90.2 69.3 90.4C69.9 90.8 70.8 90.5 71.1 89.9L72.5 87.5L73.9 90C74.1 90.4 74.6 90.7 75.1 90.7C75.3 90.7 75.6 90.6 75.8 90.5C76.4 90.1 76.7 89.3 76.3 88.7L74.9 86.2H77.7C78.4 86.2 79.1 85.6 79.1 84.8C79.1 84 78.4 83.5 77.7 83.5Z" fill="#00B8F1"/>
</g>
<defs>
<linearGradient id="paint0_linear_149_1406" x1="47.5" y1="38.5" x2="49.5" y2="71.1" gradientUnits="userSpaceOnUse">
<stop offset="0.484375" stop-color="white" stop-opacity="0"/>
<stop offset="1" stop-color="#B3B2B2"/>
</linearGradient>
<clipPath id="clip0_149_1406">
<rect width="100" height="100" fill="white"/>
</clipPath>
</defs>
</svg>
